app/assets/images/heroicon/mini/chevron-double-up.svg

<svg width="20" height="20" viewBox="0 0 20 20" fill="none" xmlns="http://www.w3.org/2000/svg">
<path fill-rule="evenodd" clip-rule="evenodd" d="M3.23017 16.7906C2.93159 16.5035 2.92228 16.0287 3.20938 15.7302L9.45938 9.23017C9.60078 9.08311 9.79599 9 10 9C10.204 9 10.3992 9.08311 10.5406 9.23017L16.7906 15.7302C17.0777 16.0287 17.0684 16.5035 16.7698 16.7906C16.4713 17.0777 15.9965 17.0684 15.7094 16.7698L10 10.8321L4.29063 16.7698C4.00353 17.0684 3.52875 17.0777 3.23017 16.7906ZM3.23017 10.7906C2.93159 10.5035 2.92228 10.0287 3.20938 9.73017L9.45938 3.23017C9.60078 3.08311 9.79599 3 10 3C10.204 3 10.3992 3.08311 10.5406 3.23017L16.7906 9.73017C17.0777 10.0287 17.0684 10.5035 16.7698 10.7906C16.4713 11.0777 15.9965 11.0684 15.7094 10.7698L10 4.83208L4.29063 10.7698C4.00353 11.0684 3.52875 11.0777 3.23017 10.7906Z" fill="#0F172A"/>
</svg>

<svg xmlns="http://www.w3.org/2000/svg" viewBox="0 0 20 20" fill="currentColor" aria-hidden="true">
  <path fill-rule="evenodd" d="M3.23 16.79a.75.75 0 01-.02-1.06l6.25-6.5a.75.75 0 011.08 0l6.25 6.5a.75.75 0 11-1.08 1.04L10 10.832 4.29 16.77a.75.75 0 01-1.06.02zm0-6a.75.75 0 01-.02-1.06l6.25-6.5a.75.75 0 011.08 0l6.25 6.5a.75.75 0 11-1.08 1.04L10 4.832 4.29 10.77a.75.75 0 01-1.06.02z" clip-rule="evenodd"/>
</svg>
